X: 1
T: the Canadian Club
C: Frank Ferrel
M: 6/8
L: 1/8
K: A
%%indent 100
AB \
|: "A"c3 cBA | E3 zAB | c3 cBA | e3- e2c | "D"dfd dcB |
|1 "A"cec cBA | "B7"B3 g2f | "E7"efd cdB :|2 "A"caf ecA | "E7"BcB EFG | "A"A3 z |: ag | "D"faf dfa |
| "A"ecA AGA | "E7"BcB EFG | "A"AEA cBA | "D"fdf agf | "A"eaf ecA | "E7"BcB EFG | "A"A3 z :|
